; HEADER_BLOCK_START
; generated by OrcaSlicer 2.1.1 on 2025-11-10 at 14:28:49
; total layer number: 215
; filament_density: 1.24
; filament_diameter: 1.75
; max_z_height: 43.00
; HEADER_BLOCK_END

; THUMBNAIL_BLOCK_START

;
; THUMBNAIL_BLOCK_END

; THUMBNAIL_BLOCK_START

;
; THUMBNAIL_BLOCK_END

; external perimeters extrusion width = 0.45mm
; perimeters extrusion width = 0.45mm
; infill extrusion width = 0.45mm
; solid infill extrusion width = 0.45mm
; top infill extrusion width = 0.40mm
; first layer extrusion width = 0.42mm

; EXECUTABLE_BLOCK_START
M73 P0 R45
M201 X500 Y500 Z100 E5000
M203 X500 Y500 Z10 E60
M204 P500 R1000 T500
M205 X8.00 Y8.00 Z0.40 E5.00 ; sets the jerk limits, mm/sec
;TYPE:Custom
G90 ; use absolute coordinates
M83 ; extruder relative mode
M104 S150 ; set temporary nozzle temp to prevent oozing during homing
M140 S60 ; set final bed temp
G4 S30 ; allow partial nozzle warmup
G28 ; home all axis and restore leveling
G1 Z50 F240
G1 X2.0 Y10 F3000
M104 S220 ; set final nozzle temp
M190 S60 ; wait for bed temp to stabilize
M109 S220 ; wait for nozzle temp to stabilize
M73 P0 R44
G1 Z0.28 F240
G92 E0
G1 X2.0 Y140 E10 F1500 ; prime the nozzle
G1 X2.3 Y140 F5000
G92 E0
M73 P1 R44
G1 X2.3 Y10 E10 F1200 ; prime the nozzle
G92 E0
G90
G21
M83 ; use relative distances for extrusion
; filament start gcode
M106 S0
;LAYER_CHANGE
;Z:0.2
;HEIGHT:0.2
;BEFORE_LAYER_CHANGE
;0.2
G92 E0

G1 E-.8 F1800
;_SET_FAN_SPEED_CHANGING_LAYER
G1 Z.4 F9000
G1 X94.357 Y93.633
G1 Z.4
G1 Z.2
G1 E.8 F1800
;TYPE:Skirt
;WIDTH:0.42
G1 F3000
G1 X95.423 Y92.619 E.04519
G1 X96.719 Y92.296 E.04102
G1 X116.619 Y92.296 E.61147
G1 X118.036 Y92.689 E.04519
G1 X119.049 Y93.755 E.04519
G1 X119.373 Y95.05 E.04102
G1 X119.373 Y124.95 E.91874
G1 X118.98 Y126.367 E.04519
G1 X117.914 Y127.381 E.04519
G1 X116.619 Y127.704 E.04102
G1 X96.719 Y127.704 E.61147
G1 X95.301 Y127.311 E.04519
G1 X94.288 Y126.245 E.04519
G1 X93.964 Y124.95 E.04102
G1 X93.964 Y95.05 E.91874
G1 X94.346 Y93.671 E.04397
G1 X94.721 Y93.783 F9000
G1 F3000
G1 X94.733 Y93.743 E.00129
G1 X95.779 Y92.867 E.04193
G1 X96.719 Y92.673 E.02948
G1 X116.619 Y92.673 E.61147
G1 X117.926 Y93.065 E.04193
G1 X118.802 Y94.11 E.04193
G1 X118.996 Y95.05 E.02948
G1 X118.996 Y124.95 E.91874
G1 X118.604 Y126.257 E.04193
G1 X117.558 Y127.133 E.04193
G1 X116.619 Y127.327 E.02948
G1 X96.719 Y127.327 E.61147
G1 X95.412 Y126.935 E.04193
G1 X94.535 Y125.89 E.04193
G1 X94.341 Y124.95 E.02948
G1 X94.341 Y95.05 E.91874
G1 X94.709 Y93.822 E.0394
; printing object втулка.STEP id:4812240299119315673 copy 0
G1 E-.2 F1800
;WIPE_START
G1 F3000
G1 X94.733 Y93.743 E-.04928
G1 X95.437 Y93.153 E-.55072
;WIPE_END
G1 Z.6 F9000
G1 X115.931 Y124.263 Z.6
G1 Z.2
G1 E.8 F1800
;TYPE:Inner wall
;WIDTH:0.419999
G1 F900
G1 X97.406 Y124.263 E.56925
G1 X97.406 Y95.737 E.87652
G1 X115.931 Y95.737 E.56925
G1 X115.931 Y124.223 E.87529
G1 X116.309 Y124.64 F9000
;TYPE:Outer wall
G1 F900
G1 X97.029 Y124.64 E.59242
G1 X97.029 Y95.36 E.89969
G1 X116.309 Y95.36 E.59242
M73 P2 R44
G1 X116.309 Y124.6 E.89846
;WIPE_START
G1 X115.309 Y124.602 E-.8
;WIPE_END
G1 Z.6 F9000
G1 X105.413 Y107.641 Z.6
G1 Z.2
G1 E.8 F1800
;TYPE:Inner wall
G1 F900
G1 X105.774 Y107.479 E.01217
G1 X106.02 Y107.395 E.00799
G1 X106.566 Y107.315 E.01695
G1 X107.116 Y107.353 E.01696
G1 X107.776 Y107.569 E.02131
G1 X108.008 Y107.674 E.00782
G1 X108.503 Y108.04 E.01893
G1 X108.911 Y108.529 E.01957
G1 X109.198 Y109.109 E.01989
G1 X109.339 Y109.73 E.01958
G1 X109.33 Y110.346 E.01892
G1 X109.109 Y111.112 E.0245
G1 X108.78 Y111.658 E.01958
G1 X108.347 Y112.095 E.01892
G1 X107.825 Y112.422 E.01892
G1 X107.243 Y112.622 E.01892
G1 X106.447 Y112.673 E.0245
G1 X105.822 Y112.547 E.01958
G1 X105.113 Y112.184 E.02449
G1 X104.64 Y111.758 E.01956
G1 X104.293 Y111.249 E.01893
G1 X104.033 Y110.495 E.0245
G1 X103.988 Y109.86 E.01957
G1 X104.091 Y109.252 E.01893
G1 X104.329 Y108.684 E.01894
G1 X104.69 Y108.186 E.01892
G1 X105.312 Y107.686 E.0245
G1 X105.376 Y107.658 E.00215
G1 X105.564 Y107.977 F9000
;TYPE:Outer wall
G1 F900
G1 X106.036 Y107.779 E.01573
G1 X106.558 Y107.694 E.01627
G1 X107.087 Y107.729 E.01629
G1 X107.791 Y107.982 E.02296
G1 X108.221 Y108.291 E.01629
G1 X108.573 Y108.696 E.01649
G1 X108.86 Y109.276 E.01989
G1 X108.969 Y109.802 E.0165
G1 X108.954 Y110.332 E.01627
G1 X108.75 Y110.998 E.02143
G1 X108.463 Y111.453 E.0165
G1 X108.085 Y111.823 E.01627
G1 X107.632 Y112.098 E.01627
G1 X107.129 Y112.263 E.01627
G1 X106.432 Y112.296 E.02143
G1 X105.908 Y112.18 E.0165
G1 X105.293 Y111.853 E.02141
G1 X104.901 Y111.486 E.01649
G1 X104.609 Y111.044 E.01629
G1 X104.392 Y110.381 E.02143
G1 X104.365 Y109.845 E.01649
G1 X104.461 Y109.324 E.01629
G1 X104.673 Y108.838 E.01629
G1 X104.99 Y108.414 E.01627
G1 X105.529 Y107.996 E.02096
;WIPE_START
G1 X106.036 Y107.779 E-.44101
G1 X106.479 Y107.707 E-.35899
;WIPE_END
G1 Z.6 F9000
G1 X115.051 Y95.85
G1 Z.6
G1 Z.2
G1 E.8 F1800
;TYPE:Bottom surface
;WIDTH:0.422275
G1 F2100
G1 X115.649 Y96.448 E.02612
G1 X115.649 Y96.984 E.01658
G1 X114.684 Y96.02 E.04215
G1 X114.148 Y96.02 E.01658
G1 X115.649 Y97.521 E.06561
G1 X115.649 Y98.057 E.01658
G1 X113.611 Y96.02 E.08906
G1 X113.075 Y96.02 E.01658
G1 X115.649 Y98.594 E.11251
G1 X115.649 Y99.13 E.01658
G1 X112.538 Y96.02 E.13597
G1 X112.002 Y96.02 E.01658
G1 X115.649 Y99.667 E.15942
G1 X115.649 Y100.203 E.01658
G1 X111.466 Y96.02 E.18287
G1 X110.929 Y96.02 E.01658
G1 X115.649 Y100.74 E.20633
G1 X115.649 Y101.276 E.01658
G1 X110.393 Y96.02 E.22978
G1 X109.856 Y96.02 E.01658
G1 X115.649 Y101.813 E.25324
G1 X115.649 Y102.349 E.01658
G1 X109.32 Y96.02 E.27669
G1 X108.783 Y96.02 E.01658
G1 X115.649 Y102.885 E.30014
G1 X115.649 Y103.422 E.01658
G1 X108.247 Y96.02 E.3236
G1 X107.71 Y96.02 E.01658
G1 X115.649 Y103.958 E.34705
G1 X115.649 Y104.495 E.01658
G1 X107.174 Y96.02 E.3705
G1 X106.637 Y96.02 E.01658
G1 X115.649 Y105.031 E.39396
G1 X115.649 Y105.568 E.01658
G1 X106.101 Y96.02 E.41741
G1 X105.564 Y96.02 E.01658
G1 X115.649 Y106.104 E.44087
G1 X115.649 Y106.641 E.01658
G1 X105.028 Y96.02 E.46432
G1 X104.491 Y96.02 E.01658
G1 X115.649 Y107.177 E.48777
G1 X115.649 Y107.714 E.01658
G1 X103.955 Y96.02 E.51123
G1 X103.418 Y96.02 E.01658
G1 X115.649 Y108.25 E.53468
G1 X115.649 Y108.787 E.01658
M73 P2 R43
G1 X102.882 Y96.02 E.55813
G1 X102.345 Y96.02 E.01658
G1 X115.649 Y109.323 E.58159
G1 X115.649 Y109.86 E.01658
G1 X101.809 Y96.02 E.60504
G1 X101.272 Y96.02 E.01658
G1 X115.649 Y110.396 E.6285
G1 X115.649 Y110.933 E.01658
G1 X100.736 Y96.02 E.65195
G1 X100.199 Y96.02 E.01658
G1 X115.649 Y111.469 E.6754
G1 X115.649 Y112.006 E.01658
G1 X99.663 Y96.02 E.69886
G1 X99.126 Y96.02 E.01658
G1 X115.649 Y112.542 E.72231
G1 X115.649 Y113.079 E.01658
G1 X98.59 Y96.02 E.74576
G1 X98.053 Y96.02 E.01658
G1 X115.649 Y113.615 E.76922
G1 X115.649 Y114.152 E.01658
G1 X97.688 Y96.192 E.78517
G1 X97.688 Y96.728 E.01658
G1 X115.649 Y114.688 E.78517
G1 X115.649 Y115.225 E.01658
G1 X109.476 Y109.052 E.26987
G1 X109.162 Y108.398 E.02242
G1 X109.042 Y108.22 E.00662
G1 X108.71 Y107.848 E.01541
G1 X108.573 Y107.726 E.00568
G1 X108.165 Y107.439 E.01542
G1 X107.974 Y107.34 E.00664
G1 X107.65 Y107.226 E.01061
G1 X97.688 Y97.264 E.43551
G1 X97.688 Y97.801 E.01658
G1 X106.95 Y107.063 E.40491
G1 X106.555 Y107.032 E.01227
G1 X106.406 Y107.055 E.00467
G1 X97.688 Y98.337 E.38109
G1 X97.688 Y98.874 E.01658
G1 X105.941 Y107.126 E.36077
G1 X105.546 Y107.268 E.01298
G1 X97.688 Y99.41 E.34349
G1 X97.688 Y99.947 E.01658
G1 X105.18 Y107.438 E.3275
G1 X104.874 Y107.669 E.01184
G1 X97.688 Y100.483 E.31411
G1 X97.688 Y101.02 E.01658
G1 X104.572 Y107.903 E.30091
G1 X104.33 Y108.198 E.01178
G1 X97.688 Y101.556 E.29033
G1 X97.688 Y102.093 E.01658
G1 X104.105 Y108.51 E.28052
G1 X103.934 Y108.875 E.01247
M73 P3 R43
G1 X97.688 Y102.629 E.27302
G1 X97.688 Y103.166 E.01658
G1 X103.799 Y109.277 E.26716
G1 X103.721 Y109.735 E.01437
G1 X97.688 Y103.702 E.26373
G1 X97.688 Y104.239 E.01658
G1 X103.91 Y110.46 E.27197
;WIPE_START
G1 X103.203 Y109.753 E-.8
;WIPE_END
G1 Z.6 F9000
G1 X109.415 Y109.528 Z.6
G1 Z.2
G1 E.8 F1800
G1 F2100
G1 X115.649 Y115.761 E.27251
G1 X115.649 Y116.298 E.01658
G1 X109.612 Y110.261 E.2639
G1 X109.602 Y110.471 E.0065
G1 X109.527 Y110.713 E.00782
G1 X115.649 Y116.834 E.26761
G1 X115.649 Y117.371 E.01658
G1 X109.401 Y111.123 E.27311
G1 X109.285 Y111.397 E.0092
G1 X109.228 Y111.486 E.00327
G1 X115.649 Y117.907 E.2807
G1 X115.649 Y118.444 E.01658
G1 X109.017 Y111.812 E.28992
G1 X108.897 Y111.958 E.00585
G1 X108.758 Y112.089 E.00591
G1 X115.649 Y118.98 E.30124
G1 X115.649 Y119.517 E.01658
G1 X108.482 Y112.35 E.3133
G1 X108.146 Y112.551 E.0121
G1 X115.649 Y120.053 E.32799
G1 X115.649 Y120.59 E.01658
G1 X107.8 Y112.741 E.34311
G1 X107.389 Y112.867 E.01328
G1 X115.649 Y121.126 E.36107
G1 X115.649 Y121.663 E.01658
G1 X106.919 Y112.933 E.38162
G1 X106.404 Y112.955 E.01594
G1 X115.649 Y122.199 E.40414
G1 X115.649 Y122.736 E.01658
G1 X105.724 Y112.811 E.43389
G1 X105.551 Y112.745 E.00572
G1 X104.884 Y112.375 E.02358
G1 X104.44 Y111.958 E.01881
G1 X104.323 Y111.816 E.0057
G1 X104.052 Y111.397 E.01542
G1 X103.96 Y111.203 E.00664
G1 X103.891 Y110.978 E.00728
G1 X97.688 Y104.775 E.27116
G1 X97.688 Y105.312 E.01658
G1 X115.649 Y123.272 E.78517
G1 X115.649 Y123.809 E.01658
G1 X97.688 Y105.848 E.78517
G1 X97.688 Y106.385 E.01658
G1 X115.284 Y123.98 E.76921
G1 X114.747 Y123.98 E.01658
G1 X97.688 Y106.921 E.74576
G1 X97.688 Y107.458 E.01658
G1 X114.211 Y123.98 E.72231
G1 X113.674 Y123.98 E.01658
G1 X97.688 Y107.994 E.69885
G1 X97.688 Y108.531 E.01658
G1 X113.138 Y123.98 E.6754
G1 X112.601 Y123.98 E.01658
G1 X97.688 Y109.067 E.65195
G1 X97.688 Y109.604 E.01658
G1 X112.065 Y123.98 E.62849
G1 X111.528 Y123.98 E.01658
G1 X97.688 Y110.14 E.60504
G1 X97.688 Y110.677 E.01658
G1 X110.992 Y123.98 E.58159
G1 X110.455 Y123.98 E.01658
G1 X97.688 Y111.213 E.55813
G1 X97.688 Y111.75 E.01658
G1 X109.919 Y123.98 E.53468
G1 X109.382 Y123.98 E.01658
G1 X97.688 Y112.286 E.51122
G1 X97.688 Y112.823 E.01658
G1 X108.846 Y123.98 E.48777
G1 X108.309 Y123.98 E.01658
G1 X97.688 Y113.359 E.46432
G1 X97.688 Y113.896 E.01658
G1 X107.773 Y123.98 E.44086
G1 X107.236 Y123.98 E.01658
G1 X97.688 Y114.432 E.41741
G1 X97.688 Y114.969 E.01658
G1 X106.7 Y123.98 E.39396
G1 X106.163 Y123.98 E.01658
G1 X97.688 Y115.505 E.3705
G1 X97.688 Y116.042 E.01658
G1 X105.627 Y123.98 E.34705
G1 X105.09 Y123.98 E.01658
G1 X97.688 Y116.578 E.32359
G1 X97.688 Y117.115 E.01658
G1 X104.554 Y123.98 E.30014
G1 X104.017 Y123.98 E.01658
G1 X97.688 Y117.651 E.27669
G1 X97.688 Y118.188 E.01658
G1 X103.481 Y123.98 E.25323
G1 X102.944 Y123.98 E.01658
G1 X97.688 Y118.724 E.22978
G1 X97.688 Y119.261 E.01658
G1 X102.408 Y123.98 E.20633
G1 X101.872 Y123.98 E.01658
G1 X97.688 Y119.797 E.18287
G1 X97.688 Y120.334 E.01658
G1 X101.335 Y123.98 E.15942
G1 X100.799 Y123.98 E.01658
G1 X97.688 Y120.87 E.13596
G1 X97.688 Y121.407 E.01658
G1 X100.262 Y123.98 E.11251
G1 X99.726 Y123.98 E.01658
G1 X97.688 Y121.943 E.08906
G1 X97.688 Y122.479 E.01658
G1 X99.189 Y123.98 E.0656
G1 X98.653 Y123.98 E.01658
G1 X97.688 Y123.016 E.04215
G1 X97.688 Y123.552 E.01658
G1 X98.286 Y124.15 E.02611
; stop printing object втулка.STEP id:4812240299119315673 copy 0
M106 S255
;LAYER_CHANGE
;Z:0.4
;HEIGHT:0.2
;BEFORE_LAYER_CHANGE
;0.4
G92 E0

;WIPE_START
G1 F2100
G1 X97.688 Y123.552 E-.67581
G1 X97.688 Y123.397 E-.12419
;WIPE_END
;_SET_FAN_SPEED_CHANGING_LAYER
G1 Z.6 F9000
G1 X93.964 Y123.397 Z.6
G1 Z.4
G1 E.8 F1800
;TYPE:Skirt
;WIDTH:0.42
G1 F3000
G1 X93.964 Y95.05 E.87103
G1 X94.357 Y93.633 E.04519
G1 X95.423 Y92.619 E.04519
G1 X96.719 Y92.296 E.04102
G1 X116.619 Y92.296 E.61147
G1 X118.036 Y92.689 E.04519
G1 X119.049 Y93.755 E.04519
G1 X119.373 Y95.05 E.04102
G1 X119.373 Y124.95 E.91874
G1 X118.98 Y126.367 E.04519
G1 X117.914 Y127.381 E.04519
G1 X116.619 Y127.704 E.04102
G1 X96.719 Y127.704 E.61147
G1 X95.301 Y127.311 E.04519
G1 X94.288 Y126.245 E.04519
G1 X93.964 Y124.95 E.04102
G1 X93.964 Y123.437 E.04648
G1 X94.341 Y123.437 F9000
G1 F3000
G1 X94.341 Y95.05 E.87226
G1 X94.733 Y93.743 E.04193
M73 P4 R43
G1 X95.779 Y92.867 E.04193
G1 X96.719 Y92.673 E.02948
G1 X116.619 Y92.673 E.61147
G1 X117.926 Y93.065 E.04193
G1 X118.802 Y94.11 E.04193
G1 X118.996 Y95.05 E.02948
G1 X118.996 Y124.95 E.91874
G1 X118.604 Y126.257 E.04193
G1 X117.558 Y127.133 E.04193
G1 X116.619 Y127.327 E.02948
G1 X96.719 Y127.327 E.61147
G1 X95.412 Y126.935 E.04193
G1 X94.535 Y125.89 E.04193
G1 X94.341 Y124.95 E.02948
G1 X94.341 Y123.477 E.04525
; printing object втулка.STEP id:4812240299119315673 copy 0
G1 E-.2 F1800
;WIPE_START
G1 F3000
G1 X94.341 Y122.477 E-.6
;WIPE_END
G1 Z.8 F9000
G1 X115.986 Y124.318 Z.8
G1 Z.4
G1 E.8 F1800
;TYPE:Inner wall
;WIDTH:0.449999
G1 F2400
G1 X97.351 Y124.318 E.61818
G1 X97.351 Y95.682 E.9499
G1 X115.986 Y95.682 E.61818
G1 X115.986 Y124.278 E.94858
G1 X116.394 Y124.725 F9000
;TYPE:Outer wall
G1 F2400
G1 X96.944 Y124.725 E.64519
G1 X96.944 Y95.275 E.97691
G1 X116.394 Y95.275 E.64519
G1 X116.394 Y124.685 E.97558
G1 E-.05 F1800
;WIPE_START
G1 F2400
G1 X115.394 Y124.687 E-.75
;WIPE_END
G1 Z.8 F9000
G1 X105.366 Y107.719 Z.8
G1 Z.4
G1 E.8 F1800
;TYPE:Inner wall
G1 F2400
G1 X105.413 Y107.686 E.00189
G1 X105.904 Y107.484 E.01761
G1 X106.682 Y107.374 E.02606
G1 X107.298 Y107.447 E.02058
G1 X107.862 Y107.657 E.01997
G1 X108.318 Y107.953 E.01801
G1 X108.705 Y108.333 E.018
G1 X109.069 Y108.933 E.02327
G1 X109.255 Y109.53 E.02075
G1 X109.294 Y110.131 E.01999
G1 X109.138 Y110.895 E.02588
G1 X108.859 Y111.455 E.02075
G1 X108.47 Y111.915 E.01999
G1 X108.033 Y112.247 E.01818
G1 X107.577 Y112.47 E.01684
G1 X107.045 Y112.602 E.01819
G1 X106.498 Y112.624 E.01818
G1 X105.982 Y112.541 E.0173
G1 X105.529 Y112.369 E.01608
G1 X105.037 Y112.064 E.01921
G1 X104.726 Y111.772 E.01415
G1 X104.384 Y111.304 E.01921
G1 X104.205 Y110.917 E.01416
G1 X104.069 Y110.415 E.01727
G1 X104.038 Y110.046 E.01226
G1 X104.093 Y109.47 E.01921
G1 X104.257 Y108.952 E.01801
G1 X104.559 Y108.431 E.01999
G1 X104.972 Y107.991 E.02
G1 X105.333 Y107.742 E.01457
G1 X105.598 Y108.055 F9000
;TYPE:Outer wall
G1 F2400
G1 X105.627 Y108.035 E.00114
G1 X106.097 Y107.85 E.01677
G1 X106.728 Y107.778 E.02106
G1 X107.235 Y107.85 E.017
G1 X107.71 Y108.035 E.0169
G1 X108.036 Y108.246 E.01287
G1 X108.403 Y108.609 E.01714
G1 X108.719 Y109.141 E.0205
G1 X108.863 Y109.637 E.01716
G1 X108.888 Y110.147 E.01691
G1 X108.742 Y110.802 E.02229
G1 X108.501 Y111.26 E.01716
G1 X108.166 Y111.644 E.01691
G1 X107.853 Y111.882 E.01303
G1 X107.398 Y112.101 E.01674
G1 X106.914 Y112.211 E.01649
G1 X106.56 Y112.221 E.01175
G1 X106.064 Y112.141 E.01664
G1 X105.737 Y112.019 E.01158
G1 X105.308 Y111.76 E.01664
G1 X105.05 Y111.525 E.01158
G1 X104.749 Y111.124 E.01664
G1 X104.597 Y110.809 E.01158
G1 X104.468 Y110.325 E.01664
G1 X104.444 Y110.015 E.01029
G1 X104.498 Y109.516 E.01664
G1 X104.615 Y109.147 E.01286
G1 X104.863 Y108.702 E.01691
G1 X105.206 Y108.324 E.01692
G1 X105.565 Y108.077 E.01445
G1 E-.05 F1800
;WIPE_START
G1 F2400
G1 X105.627 Y108.035 E-.05579
G1 X106.097 Y107.85 E-.37921
G1 X106.515 Y107.803 E-.315
;WIPE_END
G1 Z.8 F9000
G1 X97.772 Y96.037
G1 Z.8
G1 Z.4
G1 E.8 F1800
;TYPE:Internal solid infill
;WIDTH:0.429546
G1 F3000
G1 X97.699 Y96.079 E.00264
G1 X97.776 Y96.114 E.00265
G1 E-.6993 F1800
;WIPE_START
G1 F3000
G1 X97.699 Y96.079 E-.05047
G1 X97.772 Y96.037 E-.05022
;WIPE_END
G1 Z.8 F9000
G1 X115.041 Y124.196 Z.8
G1 Z.4
G1 E.8 F1800
;WIDTH:0.450024
G1 F3000
G1 X115.681 Y123.556 E.03002
G1 X115.681 Y122.98 E.0191
G1 X114.649 Y124.013 E.04843
G1 X114.073 Y124.013 E.0191
G1 X115.681 Y122.405 E.07544
G1 X115.681 Y121.829 E.0191
G1 X113.497 Y124.013 E.10245
G1 X112.922 Y124.013 E.0191
G1 X115.681 Y121.253 E.12946
G1 X115.681 Y120.677 E.0191
G1 X112.346 Y124.013 E.15647
G1 X111.77 Y124.013 E.0191
G1 X115.681 Y120.102 E.18348
G1 X115.681 Y119.526 E.0191
G1 X111.194 Y124.013 E.21049
G1 X110.619 Y124.013 E.0191
G1 X115.681 Y118.95 E.2375
G1 X115.681 Y118.374 E.0191
G1 X110.043 Y124.013 E.26451
G1 X109.467 Y124.013 E.0191
G1 X115.681 Y117.799 E.29152
G1 X115.681 Y117.223 E.0191
G1 X108.892 Y124.013 E.31854
G1 X108.316 Y124.013 E.0191
